www/assets/icons/roofing.svg

<svg xmlns="http://www.w3.org/2000/svg" width="24" height="24" viewBox="0 0 24 24" fill='currentColor'><path d="M13 18.5h-2v-2h2zm2-4H9v6h6zm4-4.7V4.5h-3v2.6l-4-3.6-10 9h3l7-6.31 7 6.31h3z"/></svg>

<svg width="24" height="24" viewBox="0 0 24 24" xmlns="http://www.w3.org/2000/svg" fill='currentColor'><path d="M13 18.5H11V16.5H13V18.5ZM15 14.5H9V20.5H15V14.5ZM19 9.8V4.5H16V7.1L12 3.5L2 12.5H5L12 6.19L19 12.5H22L19 9.8Z"/></svg>
